X:43
T:Des ennuyeux. [FJ43]
S:Festin joyeux.  Music page 21.
Z:transcribed by Eric Conrad, 2021.
N:NB The meter is given simply as "3"
N:NB Repeat marks were added at beginning and end.
N:NB The MS repeat mark is 4 vertical dots enclosed by bars on both sides.
N:NB The plus signs seem to indicate some kind of roll or trill.
M:3/4
L:1/4
K:Am % staff EGBdf; empty sig ending on A, raised sixths and sevenths, melodic minor?
|: EEA | "^+"^G2G | AA2 | "^+"B3 | BBB | c>BA | ^G2A | "^+"B3 ::
BBB | c2B | A^F2 | "^+"^G3 | AA^F | ^G2A | B"^+"B2 | A3 :|

